icons/src/svg/proportions_inactive.svg

<svg width="32" height="32" viewBox="0 0 32 32" fill="none" xmlns="http://www.w3.org/2000/svg">
<path fill-rule="evenodd" clip-rule="evenodd" d="M19 11.0003C19 10.4481 19.4477 10.0003 20 10.0003H24C27.3137 10.0003 30 12.6866 30 16.0003C30 19.3141 27.3137 22.0003 24 22.0003H20C19.4477 22.0003 19 21.5526 19 21.0003C19 20.4481 19.4477 20.0003 20 20.0003H24C26.2091 20.0003 28 18.2095 28 16.0003C28 13.7912 26.2091 12.0003 24 12.0003H20C19.4477 12.0003 19 11.5526 19 11.0003Z" fill="#0D0F13"/>
<path fill-rule="evenodd" clip-rule="evenodd" d="M13 21C13 21.5523 12.5523 22 12 22H8C4.68629 22 2 19.3137 2 16C2 12.6863 4.68629 10 8 10H12C12.5523 10 13 10.4477 13 11C13 11.5523 12.5523 12 12 12H8C5.79086 12 4 13.7908 4 16C4 18.2091 5.79086 20 8 20H12C12.5523 20 13 20.4477 13 21Z" fill="#0D0F13"/>
</svg>

<svg fill="none" xmlns="http://www.w3.org/2000/svg" viewBox="0 0 32 32">
  <path fill-rule="evenodd" clip-rule="evenodd" d="M19 11a1 1 0 0 1 1-1h4a6 6 0 0 1 0 12h-4a1 1 0 1 1 0-2h4a4 4 0 1 0 0-8h-4a1 1 0 0 1-1-1ZM13 21a1 1 0 0 1-1 1H8a6 6 0 0 1 0-12h4a1 1 0 1 1 0 2H8a4 4 0 1 0 0 8h4a1 1 0 0 1 1 1Z" fill="currentColor"/>
</svg>
